X: 11622
T: Eight Men Of Mùideart, The
R: reel
M: 4/4
K: Amixolydian
e|A/A/A Ae TcAec|B/B/B Bg BGGB|A/A/A Ae cAec|B/B/B ed TcAA:|
e|a>bae a>bae|g>agd BGGB|a>bae abae|dBed cAAe|
a>bae a>bae|g>agd BGGg|afge fdec|dBed TcAA||

